X:1
T:Occhi ridenti
T:Occhi ridenti
T:Gio.Girolamo Kapsperger
C:Gio.Girolamo Kapsperger
%%score [ 1 2 ] { ( 3 4 ) | 5 }
L:1/8
Q:1/4=120
M:3/4
K:C
V:1 treble nm="Soprano 1" snm="S 1"
V:2 treble nm="Soprano 2" snm="S 2"
V:3 treble nm="BC" snm="BC"
V:4 treble 
V:5 bass 
V:1
 d2 c2 A2 | B3 c d2 | c4 B2 | A4 A2 | c2 d2 B2 | c3 d c2 | B4 A2 | B4 B2 | B2 c2 d2 | e3 f e2 | %10
w: Oc- chi ri-|den- ti, ti-|ra mi'ar-|den- ti,|sol tan to|spi- ro qual|hor vi|mi- ro,|se pla- ci-|dis- si- mo|
w: Al- tri va-|gheg- gi gl'il-|lus- tri|pieg- gi,|ch'in bel l'a-|vo- ro sco-|pre'il crin|d'o- ro,-|voi lam- peg-|gia- te- mi|
 d3 e d2 | c4 c2 | e2 d2 d2 | c3 d c2 | B3 c B2 | A4 A2 | c2 G2 A2 | B3 c d2 | c4 B2 | A4 A2 | %20
w: vol- ge- s'il|guar- do,|se cru- de-|lis- si- mo,|lan- cia s'il|dar- do,|oc- chi vi-|ta- li lan-|guir mi|sen- to,|
w: gl'au- rei ba-|le- ni,|voi ba- le-|na- te- mi|gl'ai- rei se-|re- ni,|ch'a voi se-|gua- ce mi|vol- go'e|gi- ro,|
 d2 c2 c2 | B3 c B2 | A3 B A2 | G4 G2 :: A2 A2 B2 | c3 d c2 | G2 G2 A2 | B3 c B2 | A2 A2 B2 | %29
w: tra fiam- m'e-|stra- li con-|dol- ce tor-|men- to.|Ma voi mi-|ra- te- mi|e tra- fig-|get- te me|oc- chi ar-|
w: ne tre- gua'o|pa- ce in|al- tro so-|spi- ro.|Se dun- qu'e|ri- gi- di|pur saet- ta-|te- mi, oc-|chi- in- fiam-|
 G3 A B2 | AG F3 F | E6 | B2 B2 B2 | c2 c2 B2 | A4 d2 | B2 B2 A2 | G2 (A2 B2) | c2 c2 c2 | B4 B2 | %39
w: de- te mi,|chio _ sal- do|sto,|dol- ce lan-|gui- re, vi-|tal mo-|ri- re so-|a- vi _|sten- to sin|voi si|
w: ma- te- mi,|chio _ fer- mo'il|pie,|qui m'av- ven-|ta- te sa-|et- te'a-|la- te ma|fiam- m'e _|stra- li sian|sguar- di'e|
 A4 A2 | c2 G2 A2 | B3 c d2 | c4 B2 | A4 A2 | d2 c2 c2 | B3 c B2 | A3 B A2 | G4 G2 |] %48
w: mo- ve,|dol- ce tor-|men- to da|voi se|pro- ve,|ca- re mie|stel- le, cru-|de- li ma|bel- le.|
w: ri- si,|sian i sor-|ri- si gl'ar-|dor vi-|ta- li,|ca- re mie|stel- le, cru-|de- li ma|bel- le.|
V:2
 D2 E2 ^F2 | G3 A B2 | A4 G2 | ^F4 F2 | E2 ^F2 ^G2 | c3 d c2 | ^G4 ^F2 | ^G4 G2 | ^G2 A2 B2 | %9
w: Oc- chi ri-|den- ti, ti-|ra mi'ar-|den- ti,|sol tan- to|spi- ro qual|hor vi|mi- ro,|se pla- ci-|
w: Al- tri va-|gheg- gi cl'il-|lus- tri|pieg- gi,|ch'in bel l'a-|vo- ro sco-|pre'il crin|do- ro,|voi lam- peg-|
 c3 d c2 | B3 A B2 | c4 c2 | c2 B2 B2 | A3 B A2 | ^G3 ^F G2 | A4 A2 | A2 E2 ^F2 | G3 A B2 | A4 G2 | %19
w: dis- si- mo|vol- ge- s'il|guar- do,|se cru- de-|lis- si- mo,|lan- cia s'il|dar- do,|oc- chi vi-|ta- li lan-|guir mi|
w: gia- te- mi|gl'au- rei na-|le- ni,|voi ba- le-|na- te- mi|gl'ai rei se-|re- ni,|ch'a voi se-|gua- ce mi|vol- go'e|
 ^F4 F2 | G2 E2 ^F2 | G3 A G2 | ^F3 E F2 | G4 G2 :: ^F2 F2 ^G2 | A3 B A2 | E2 E2 ^F2 | G3 A G2 | %28
w: sen- to,|tra fiam- m'e-|stra- li con|dol- ce tor-|men- to.|Ma voi mi-|ra- te- mi|e tra- fig-|get- te me|
w: gi- ro,|ne tre- gua'o|pa- ce in|al- tre so-|spi- ro.|Se dun- qu'e|ri- i- di|pur saet- ta-|te- mi, oc-|
 ^F2 F2 G2 | E3 ^F G2 | ^FE E2 ^D2 | E6 | ^G2 G2 G2 | A2 G2 G2 | ^F4 B2 | G2 G2 ^F2 | %36
w: oc- chi ar-|de- te mi,|chio _ sal- do|sto,|dol- ce lan-|gui- re, vi-|tal mo-|ri- re so-|
w: chi in- fiam-|ma- te- mi,|chio _ fer- mo'il|pie,|qui m'av- ven-|ta- te sa-|et- te'a-|la- te ma|
 E2 (^F2 ^G2) | A2 A2 A2 | A4 ^G2 | A4 A2 | A2 E2 ^F2 | G3 A B2 | A4 G2 | ^F4 F2 | G2 E2 ^F2 | %45
w: a- vi _|stan- to sin|voi si|mo- ve,|dol- ce tor-|men- to da|voi se|pro- ve,|ca- re mie|
w: fiam- m'e _|stra- li sian|sguar- di'e|ri- si,|sian i sor-|ri- si gl'ar-|dor vi-|ta- li,|ca- re mie|
 G3 A G2 | ^F3 E F2 | G4 G2 |] %48
w: stel- le, dru-|de- li ma|bel- le.|
w: stel- le, cru-|de- li ma|bel- le.|
V:3
 x6 | [DGB]6 | [EGc]4 [GB]2 | [^FA]6 | [Ec]2 [^FA]2 [^GB]2 | [Ec]6 | [^GB]4 [^FA]2 | [^GB]6 | %8
 B2 [Ac]2 [Fd]2 | [EGc]6 | [GBd]6 | [EGc]6 | [EGc]2 [^FA]2 [Gd]2 | [Ac]2 [FA]2 [Ac]2 | [^GB]6 | %15
 [EAc]6 | [Ec]2 [EG]2 [^FA]2 | [DGB]6 | [Gc]4 [DB]2 | [^FA]6 | [GBd]2 [Gce]2 [^FAd]2 | %21
 [GB]2 [Ec]4 | d6 | [DGB]6 :: x6 | x6 | [Ec]2 [EG]2 [^FA]2 | [DB]6 | [^FA]4 [Gd]2 | [Ec]4 [DB]2 | %30
 [Ac]2 [^FBe]2 [F^d]2 | [^Ge]6 | [^GB]6 | [Ec]2 [Gc]2 [DB]2 | [^FA]6 | [Bd]2 [Ec]2 [GB]2 | %36
 [Ec]2 [^FA]2 [DB]2 | [Ec]6 | x6 | [EAc]6 | [Ac]2 [EG]2 [^Fd]2 | [DGB]6 | c4 B2 | x6 | %44
 [Bd]2 [Ec]2 [^FA]2 | [EGB]2 [Gc]2 [GB]2 | A2 dc BA | [DGB]6 |] %48
V:4
 [^FA]2 [Ec]2 [FA]2 | x6 | x6 | x6 | x6 | x6 | x6 | x6 | x6 | x6 | x6 | x6 | x6 | x6 | x6 | x6 | %16
 x6 | x6 | x6 | x6 | x6 | x6 | A3 G ^F2 | x6 :: [^Fd]2 [EA]2 [^Ge]2 | [EAc]6 | x6 | x6 | x6 | x6 | %30
 x6 | x6 | x6 | x6 | x6 | x6 | x6 | x6 | A4 ^G2 | x6 | x6 | x6 | E2 D4 | [^FA]6 | x6 | x6 | %46
 ^FG AE F2 | x6 |] %48
V:5
 D,2 A,,2 D,2 | G,,4 G,,2 | C,2 G,,4 | D,4 D,2 | A,,4 E,2 | A,,4 A,,2 | E,2 A,,4 | E,4 E,2 | %8
 E,4 D,2 | C,4 C,2 | G,,4 G,,2 | C,4 C,2 | C,2 D,2 E,2 | F,2 D,4 | E,4 E,2 | A,,4 A,,2 | %16
 A,,2 C,2 A,,2 | G,,4 G,,2 | C,2 G,,4 | D,4 D,2 | G,,2 C,2 D,2 | E,2 C,4 | D,4 D,2 | G,,4 G,,2 :: %24
 D,2 C,2 B,,2 | A,,4 A,,2 | C,2 B,,2 A,,2 | G,,4 G,,2 | D,4 B,,2 | C,4 G,,2 | A,,2 B,,4 | E,6 | %32
 E,4 E,2 | A,,2 E,2 G,2 | D,4 D,2 | G,,2 A,,2 B,,2 | C,4 B,,2 | A,,4 A,,2 | [E,B,]4 [E,B,]2 | %39
 A,,4 A,,2 | A,,2 C,2 A,,2 | G,,4 G,,2 | C,2 G,,4 | D,4 D,2 | G,,2 C,2 D,2 | E,2 C,4 | D,4 D,2 | %47
 G,,4 G,,2 |] %48

